build/Karasa-Jaga/scalable/actions/image-crop-symbolic.svg

<svg height="16" width="16" xmlns="http://www.w3.org/2000/svg"><path d="m3 0v2h2v-2zm-3 3v2h11v11h2v-11-2h-2zm3 3v5 2h2 5v-2h-5v-5zm11 5v2h2v-2z" fill="#bebebe"/></svg>

<?xml version="1.0" encoding="UTF-8" standalone="no"?>
<!-- Created with Inkscape (http://www.inkscape.org/) -->

<svg
   xmlns:dc="http://purl.org/dc/elements/1.1/"
   xmlns:cc="http://creativecommons.org/ns#"
   xmlns:rdf="http://www.w3.org/1999/02/22-rdf-syntax-ns#"
   xmlns:svg="http://www.w3.org/2000/svg"
   xmlns="http://www.w3.org/2000/svg"
   xmlns:sodipodi="http://sodipodi.sourceforge.net/DTD/sodipodi-0.dtd"
   xmlns:inkscape="http://www.inkscape.org/namespaces/inkscape"
   version="1.1"
   width="16"
   height="16"
   id="svg7384"
   inkscape:version="0.48.3.1 r9886"
   sodipodi:docname="edit-crop.svg">
  <sodipodi:namedview
     pagecolor="#ffffff"
     bordercolor="#666666"
     borderopacity="1"
     objecttolerance="10"
     gridtolerance="10"
     guidetolerance="10"
     inkscape:pageopacity="0"
     inkscape:pageshadow="2"
     inkscape:window-width="1280"
     inkscape:window-height="754"
     id="namedview8"
     showgrid="true"
     inkscape:zoom="35"
     inkscape:cx="7.0142857"
     inkscape:cy="8"
     inkscape:window-x="0"
     inkscape:window-y="24"
     inkscape:window-maximized="1"
     inkscape:current-layer="svg7384">
    <inkscape:grid
       type="xygrid"
       id="grid2985" />
  </sodipodi:namedview>
  <title
     id="title9167">Gnome Symbolic Icon Theme</title>
  <defs
     id="defs9" />
  <metadata
     id="metadata90">
    <rdf:RDF>
      <cc:Work
         rdf:about="">
        <dc:format>image/svg+xml</dc:format>
        <dc:type
           rdf:resource="http://purl.org/dc/dcmitype/StillImage" />
        <dc:title>Gnome Symbolic Icon Theme</dc:title>
      </cc:Work>
    </rdf:RDF>
  </metadata>
  <path
     style="color:#bebebe;fill:#bebebe"
     d="M 3 0 L 3 2 L 5 2 L 5 0 L 3 0 z M 0 3 L 0 5 L 11 5 L 11 16 L 13 16 L 13 5 L 13 3 L 11 3 L 0 3 z M 3 6 L 3 11 L 3 13 L 5 13 L 10 13 L 10 11 L 5 11 L 5 6 L 3 6 z M 14 11 L 14 13 L 16 13 L 16 11 L 14 11 z "
     id="rect31984" />
</svg>
